image/icons/man.svg

<svg width="31" height="43" viewBox="0 0 31 43" fill="none" xmlns="http://www.w3.org/2000/svg">
<path d="M30.4761 41.1489H0.524414V36.1268C0.524414 31.6611 4.14463 28.0409 8.61035 28.0409H22.3902C26.8559 28.0409 30.4761 31.6611 30.4761 36.1268V41.1489Z" fill="#F87064"/>
<path d="M29.0698 40.2699C28.7785 40.2699 28.5424 40.0338 28.5424 39.7425V36.1269C28.5424 34.4236 27.8237 32.7798 26.5705 31.6172C26.3571 31.4191 26.3445 31.0855 26.5426 30.8719C26.7407 30.6585 27.0745 30.6462 27.2879 30.8439C28.7555 32.2055 29.5971 34.1311 29.5971 36.1269V39.7425C29.5971 40.0338 29.3611 40.2699 29.0698 40.2699Z" fill="white"/>
<path d="M5.44629 38.2362C5.44629 33.7705 9.0665 30.1503 13.5322 30.1503H27.3121C27.4956 30.1503 27.6772 30.1585 27.8575 30.1707C26.418 28.8486 24.4987 28.0409 22.3902 28.0409H8.61035C4.14463 28.0409 0.524414 31.6611 0.524414 36.1268V41.1487H5.44629V38.2362Z" fill="#F87064"/>
<path d="M15.5291 33.5407L10.0897 37.069C9.62195 37.3724 9.00391 37.0367 9.00391 36.4791V28.0409H15.5291V33.5407Z" fill="#F87064"/>
<path d="M15.5112 33.5407L20.9506 37.069C21.4184 37.3724 22.0364 37.0367 22.0364 36.4791V28.0409H15.5112V33.5407Z" fill="#F87064"/>
<path d="M9.00391 31.5365C10.2959 30.6614 11.8544 30.1503 13.5322 30.1503H15.5291V28.0409H9.00391V31.5365Z" fill="#99AF17"/>
<path d="M22.0364 28.0409H15.5112V30.1503H22.0364V28.0409Z" fill="#99AF17"/>
<path d="M11.3491 19.4994V28.0409L15.5288 33.5408L19.6513 28.0409V19.4994H11.3491Z" fill="#FFEACF"/>
<path d="M14.8648 28.0409V19.4994H11.3491V28.0409L15.5289 33.5408L17.2745 31.2119L14.8648 28.0409Z" fill="#FFD59A"/>
<path d="M6.92537 18.4259H10.3513V6.19258C10.3513 5.0609 9.43394 4.14368 8.30244 4.14368H6.92537C5.79369 4.14368 4.87646 5.06108 4.87646 6.19258V16.377C4.87629 17.5087 5.79369 18.4259 6.92537 18.4259Z" fill="#8C4C17"/>
<path d="M24.1236 3.09399H22.7293C21.6025 3.09399 20.689 4.00753 20.689 5.13429V6.91073C22.897 8.55323 24.3276 11.1822 24.3276 14.1457V17.3659C25.3586 17.2635 26.164 16.3938 26.164 15.3358V5.13429C26.1638 4.00753 25.2505 3.09399 24.1236 3.09399Z" fill="#8C4C17"/>
<path d="M24.5318 17.8349C26.1415 17.8349 27.4464 16.5299 27.4464 14.9202C27.4464 13.3105 26.1415 12.0056 24.5318 12.0056C22.9221 12.0056 21.6172 13.3105 21.6172 14.9202C21.6172 16.5299 22.9221 17.8349 24.5318 17.8349Z" fill="#FFEACF"/>
<path d="M6.16854 18.8896C7.77824 18.8896 9.08316 17.5846 9.08316 15.9749C9.08316 14.3652 7.77824 13.0603 6.16854 13.0603C4.55883 13.0603 3.25391 14.3652 3.25391 15.9749C3.25391 17.5846 4.55883 18.8896 6.16854 18.8896Z" fill="#FFD59A"/>
<path d="M15.5202 26.3513C10.5433 26.3513 6.50879 22.3168 6.50879 17.3399V12.7521C6.50879 7.77525 10.5433 3.74072 15.5202 3.74072C20.4971 3.74072 24.5317 7.77525 24.5317 12.7521V17.3399C24.5318 22.3168 20.4971 26.3513 15.5202 26.3513Z" fill="#FFEACF"/>
<path d="M9.67113 16.2052V11.732C9.67113 11.3908 9.69029 11.054 9.72738 10.7226C9.78486 10.2097 10.2245 9.82492 10.7406 9.82492H24.0451C22.83 6.28503 19.4724 3.7406 15.5201 3.7406C15.1332 3.7406 14.7523 3.76574 14.3782 3.81302C14.3787 3.81267 14.3793 3.81232 14.38 3.81214C14.3511 3.81583 14.3228 3.82111 14.294 3.82498C14.1991 3.83781 14.1043 3.85169 14.0103 3.86751C13.9648 3.87525 13.9196 3.88404 13.8742 3.8923C13.7909 3.90759 13.7081 3.92376 13.6257 3.94134C13.5779 3.95154 13.5302 3.96244 13.4828 3.97333C13.4024 3.99179 13.3228 4.01166 13.2434 4.03222C13.1968 4.04435 13.1504 4.0563 13.1041 4.06931C13.0219 4.09216 12.9403 4.1166 12.8589 4.14173C12.8174 4.15457 12.7758 4.16669 12.7345 4.18005C12.6371 4.21169 12.5406 4.24544 12.4446 4.28025C12.4209 4.28886 12.3968 4.2966 12.3732 4.30539C12.2539 4.34986 12.1359 4.39679 12.019 4.44619C11.9886 4.45902 11.9588 4.47308 11.9285 4.48626C11.8429 4.52353 11.7578 4.56132 11.6738 4.60105C11.6318 4.62091 11.5901 4.64183 11.5485 4.6624C11.4769 4.69755 11.4057 4.73324 11.3353 4.77033C11.2906 4.79371 11.2463 4.81779 11.2022 4.84205C11.1354 4.87861 11.0691 4.91605 11.0032 4.95419C10.9591 4.97986 10.915 5.00552 10.8714 5.03189C10.8053 5.07179 10.7401 5.11275 10.675 5.15441C10.6339 5.1806 10.5928 5.20644 10.5522 5.23333C10.4806 5.28062 10.4103 5.32966 10.3402 5.37906C10.308 5.40173 10.2751 5.42371 10.2431 5.44673C10.144 5.51863 10.0463 5.59228 9.9501 5.66787C9.92022 5.69142 9.89139 5.71621 9.86186 5.74011C9.79489 5.79425 9.72809 5.84874 9.66252 5.90482C9.6235 5.93822 9.58535 5.97285 9.54686 6.00695C9.49219 6.05529 9.43787 6.1038 9.38461 6.15355C9.34418 6.19117 9.30446 6.22931 9.26473 6.26763C9.21463 6.31597 9.16524 6.36466 9.11619 6.41406C9.07664 6.45396 9.03744 6.49421 8.9986 6.53482C8.95078 6.58492 8.90385 6.63589 8.85727 6.68722C8.81983 6.72835 8.78203 6.76931 8.74529 6.81132C8.69731 6.86599 8.65072 6.92189 8.60397 6.97761C8.57074 7.01734 8.53682 7.05654 8.5043 7.09697C8.43592 7.18169 8.36947 7.26765 8.30408 7.35484C8.27016 7.40001 8.23746 7.44625 8.20459 7.49212C8.15889 7.55558 8.11318 7.61886 8.06906 7.68337C8.03672 7.73066 8.00596 7.779 7.97449 7.82716C7.93775 7.88324 7.90119 7.93949 7.86568 7.99644C7.83387 8.04742 7.80311 8.0991 7.77234 8.15078C7.7393 8.2065 7.7066 8.2624 7.67461 8.31882C7.64455 8.37191 7.61502 8.42535 7.58584 8.47914C7.55508 8.53591 7.52537 8.59339 7.49584 8.65087C7.46807 8.70519 7.44012 8.75933 7.4134 8.81435C7.3844 8.87412 7.35662 8.93459 7.32885 8.99505C7.30406 9.04884 7.27875 9.10228 7.2552 9.1566C7.2232 9.2299 7.19332 9.30425 7.16326 9.37843C7.13057 9.45929 7.0991 9.54085 7.06869 9.62294C7.04373 9.69009 7.01824 9.75707 6.99486 9.82492H6.99557C6.68039 10.7428 6.5083 11.7272 6.5083 12.7522V17.2309C6.5083 22.1887 10.4669 26.2995 15.4243 26.3508C17.0181 26.3673 18.5177 25.9699 19.8223 25.2596C19.4289 25.3093 19.0276 25.3337 18.62 25.3309C13.6491 25.2974 9.67113 21.1769 9.67113 16.2052Z" fill="#FFD59A"/>
<path d="M21.0713 8.49879H5.99318C4.30744 8.49879 2.94092 7.13227 2.94092 5.44653V3.39516C2.94092 1.70942 4.30744 0.342896 5.99318 0.342896H21.0713C22.7571 0.342896 24.1236 1.70942 24.1236 3.39516V5.44653C24.1236 7.13227 22.7571 8.49879 21.0713 8.49879Z" fill="#A56021"/>
<path d="M21.0713 7.61987C20.78 7.61987 20.5439 7.3838 20.5439 7.09253C20.5439 6.80126 20.78 6.56518 21.0713 6.56518C21.6881 6.56518 22.19 6.06333 22.19 5.44651V3.39514C22.19 3.10387 22.426 2.8678 22.7173 2.8678C23.0086 2.8678 23.2447 3.10387 23.2447 3.39514V5.44651C23.2447 6.64499 22.2698 7.61987 21.0713 7.61987Z" fill="#BF6C0D"/>
<path d="M10.4196 16.1681C11.0393 16.1681 11.5417 15.6657 11.5417 15.0459C11.5417 14.4261 11.0393 13.9237 10.4196 13.9237C9.79978 13.9237 9.29736 14.4261 9.29736 15.0459C9.29736 15.6657 9.79978 16.1681 10.4196 16.1681Z" fill="#A56021"/>
<path d="M20.6212 16.1681C21.241 16.1681 21.7434 15.6657 21.7434 15.0459C21.7434 14.4261 21.241 13.9237 20.6212 13.9237C20.0014 13.9237 19.499 14.4261 19.499 15.0459C19.499 15.6657 20.0014 16.1681 20.6212 16.1681Z" fill="#A56021"/>
<path d="M8.21436 5.44653V3.39516C8.21436 1.70942 9.58088 0.342896 11.2666 0.342896H5.99319C4.30744 0.342896 2.94092 1.70942 2.94092 3.39516V5.44653C2.94092 7.13227 4.30744 8.49879 5.99319 8.49879H11.2666C9.58088 8.49879 8.21436 7.13227 8.21436 5.44653Z" fill="#8C4C17"/>
<path d="M17.6049 42.657L18.2968 34.1694H12.7671L13.459 42.657H17.6049Z" fill="#FFA730"/>
<path d="M14.954 42.657L14.2621 34.1694H12.7671L13.459 42.657H14.954Z" fill="#E58D23"/>
<path d="M19.0211 42.1321H12.1442C11.9792 42.1321 11.8452 41.9982 11.8452 41.8331V36.1522H19.3201V41.8331C19.3201 41.9984 19.1862 42.1321 19.0211 42.1321Z" fill="#FFD551"/>
<path d="M11.8452 36.1522V41.8331C11.8452 41.9982 11.9792 42.1321 12.1442 42.1321H13.9382V36.1522H11.8452Z" fill="#F87064"/>
<path d="M18.4404 35.1829H12.5601L11.8452 36.1521H19.3201L18.4404 35.1829Z" fill="#F87064"/>
<path d="M7.96533 40.4175C8.83906 40.4175 9.54736 39.7092 9.54736 38.8354C9.54736 37.9617 8.83906 37.2534 7.96533 37.2534C7.0916 37.2534 6.3833 37.9617 6.3833 38.8354C6.3833 39.7092 7.0916 40.4175 7.96533 40.4175Z" fill="#F87064"/>
<path d="M10.771 4.32446C11.6447 4.32446 12.353 3.61616 12.353 2.74243C12.353 1.8687 11.6447 1.1604 10.771 1.1604C9.89726 1.1604 9.18896 1.8687 9.18896 2.74243C9.18896 3.61616 9.89726 4.32446 10.771 4.32446Z" fill="#8C4C17"/>
<path d="M17.8511 40.4176H13.1489C12.9547 40.4176 12.7974 40.2603 12.7974 40.066V38.4629C12.7974 38.2687 12.9547 38.1113 13.1489 38.1113H17.8511C18.0453 38.1113 18.2026 38.2687 18.2026 38.4629V40.066C18.2026 40.2601 18.0451 40.4176 17.8511 40.4176Z" fill="#FF624B"/>
<path d="M13.9378 38.1113H13.1489C12.9547 38.1113 12.7974 38.2688 12.7974 38.4629V40.066C12.7974 40.2601 12.9547 40.4176 13.1489 40.4176H13.9378V38.1113Z" fill="#FF4B34"/>
</svg>

<svg xmlns="http://www.w3.org/2000/svg" fill="none" viewBox="0 0 31 43"><path fill="#F87064" d="M30.476 41.149H.524v-5.022A8.086 8.086 0 0 1 8.61 28.04h13.78a8.086 8.086 0 0 1 8.086 8.086v5.022z"/><path fill="#fff" d="M29.07 40.27a.527.527 0 0 1-.528-.528v-3.615a6.172 6.172 0 0 0-1.972-4.51.527.527 0 0 1 .718-.773 7.23 7.23 0 0 1 2.31 5.283v3.615a.527.527 0 0 1-.528.528z"/><path fill="#F87064" d="M5.446 38.236a8.086 8.086 0 0 1 8.086-8.086h13.78c.184 0 .365.009.546.02a8.056 8.056 0 0 0-5.468-2.13H8.61a8.086 8.086 0 0 0-8.086 8.087v5.022h4.922v-2.913z"/><path fill="#F87064" d="M15.53 33.54l-5.44 3.529a.703.703 0 0 1-1.086-.59v-8.438h6.525v5.5z"/><path fill="#F87064" d="M15.511 33.54l5.44 3.529a.703.703 0 0 0 1.085-.59v-8.438h-6.525v5.5z"/><path fill="#99AF17" d="M9.004 31.537a8.047 8.047 0 0 1 4.528-1.387h1.997v-2.11H9.004v3.497z"/><path fill="#99AF17" d="M22.036 28.04h-6.525v2.11h6.525v-2.11z"/><path fill="#FFEACF" d="M11.35 19.5v8.54l4.179 5.5 4.122-5.5V19.5H11.35z"/><path fill="#FFD59A" d="M14.865 28.04V19.5h-3.516v8.54l4.18 5.5 1.745-2.328-2.41-3.171z"/><path fill="#8C4C17" d="M6.925 18.426h3.426V6.193a2.049 2.049 0 0 0-2.049-2.05H6.925a2.049 2.049 0 0 0-2.049 2.05v10.184c0 1.132.918 2.049 2.05 2.049zM24.124 3.094h-1.395a2.04 2.04 0 0 0-2.04 2.04v1.777a8.998 8.998 0 0 1 3.639 7.235v3.22a2.04 2.04 0 0 0 1.836-2.03V5.134a2.04 2.04 0 0 0-2.04-2.04z"/><path fill="#FFEACF" d="M24.532 17.835a2.915 2.915 0 1 0 0-5.83 2.915 2.915 0 0 0 0 5.83z"/><path fill="#FFD59A" d="M6.169 18.89a2.915 2.915 0 1 0 0-5.83 2.915 2.915 0 0 0 0 5.83z"/><path fill="#FFEACF" d="M15.52 26.351A9.011 9.011 0 0 1 6.51 17.34v-4.588a9.011 9.011 0 1 1 18.023 0v4.588a9.011 9.011 0 0 1-9.012 9.011z"/><path fill="#FFD59A" d="M9.671 16.205v-4.473c0-.341.02-.678.056-1.01a1.017 1.017 0 0 1 1.014-.897h13.304a9.015 9.015 0 0 0-9.665-6.013c-.029.004-.057.01-.086.013-.095.013-.19.027-.284.043l-.136.024a8.834 8.834 0 0 0-.63.14l-.14.037a9.03 9.03 0 0 0-.245.073l-.124.038a9.082 9.082 0 0 0-.29.1l-.072.025c-.12.045-.237.092-.354.141l-.09.04c-.086.038-.171.075-.255.115l-.125.061a8.375 8.375 0 0 0-.546.292l-.132.078-.196.122c-.041.027-.082.052-.123.08a8.523 8.523 0 0 0-.212.145l-.097.068c-.099.072-.197.145-.293.22l-.088.073a9.337 9.337 0 0 0-.2.165c-.039.033-.077.068-.115.102a8.004 8.004 0 0 0-.548.528 8.25 8.25 0 0 0-.142.152l-.112.124c-.048.055-.094.11-.141.167l-.1.119c-.068.085-.135.17-.2.258l-.1.137-.135.191-.095.144a8.969 8.969 0 0 0-.108.17c-.032.05-.063.102-.094.154a10 10 0 0 0-.276.5l-.083.163c-.029.06-.056.12-.084.181-.025.054-.05.107-.074.162a8.914 8.914 0 0 0-.187.466c-.024.067-.05.134-.073.202a8.996 8.996 0 0 0-.487 2.927v4.479c0 4.958 3.959 9.068 8.916 9.12a8.974 8.974 0 0 0 4.398-1.091 9.09 9.09 0 0 1-1.202.07c-4.97-.033-8.949-4.153-8.949-9.125z"/><path fill="#A56021" d="M21.071 8.499H5.993a3.052 3.052 0 0 1-3.052-3.052V3.395A3.052 3.052 0 0 1 5.993.343h15.078a3.052 3.052 0 0 1 3.053 3.052v2.052a3.052 3.052 0 0 1-3.053 3.052z"/><path fill="#BF6C0D" d="M21.071 7.62a.527.527 0 1 1 0-1.055 1.12 1.12 0 0 0 1.119-1.118V3.395a.527.527 0 1 1 1.055 0v2.052A2.176 2.176 0 0 1 21.07 7.62z"/><path fill="#A56021" d="M10.42 16.168a1.122 1.122 0 1 0 0-2.244 1.122 1.122 0 0 0 0 2.244zM20.621 16.168a1.122 1.122 0 1 0 0-2.244 1.122 1.122 0 0 0 0 2.244z"/><path fill="#8C4C17" d="M8.214 5.447V3.395A3.052 3.052 0 0 1 11.267.343H5.993a3.052 3.052 0 0 0-3.052 3.052v2.052a3.052 3.052 0 0 0 3.052 3.052h5.274a3.052 3.052 0 0 1-3.053-3.052z"/><path fill="#FFA730" d="M17.605 42.657l.692-8.488h-5.53l.692 8.488h4.146z"/><path fill="#E58D23" d="M14.954 42.657l-.692-8.488h-1.495l.692 8.488h1.495z"/><path fill="#FFD551" d="M19.021 42.132h-6.877a.3.3 0 0 1-.299-.299v-5.68h7.475v5.68a.299.299 0 0 1-.299.3z"/><path fill="#F87064" d="M11.845 36.152v5.681a.3.3 0 0 0 .3.3h1.793v-5.98h-2.093z"/><path fill="#F87064" d="M18.44 35.183h-5.88l-.715.97h7.475l-.88-.97zM7.965 40.417a1.582 1.582 0 1 0 0-3.164 1.582 1.582 0 0 0 0 3.164z"/><path fill="#8C4C17" d="M10.771 4.324a1.582 1.582 0 1 0 0-3.164 1.582 1.582 0 0 0 0 3.164z"/><path fill="#FF624B" d="M17.851 40.418H13.15a.351.351 0 0 1-.352-.352v-1.603c0-.194.158-.352.352-.352h4.702c.194 0 .352.158.352.352v1.603a.352.352 0 0 1-.352.352z"/><path fill="#FF4B34" d="M13.938 38.111h-.79a.352.352 0 0 0-.35.352v1.603c0 .194.157.352.35.352h.79V38.11z"/></svg>
